komodo/Komodo-Biru/emblems/scalable/emblem-symbolic-link.svg

<?xml version="1.0" encoding="UTF-8" standalone="no"?>
<!-- Created with Inkscape (http://www.inkscape.org/) -->

<svg
   xmlns:dc="http://purl.org/dc/elements/1.1/"
   xmlns:cc="http://creativecommons.org/ns#"
   xmlns:rdf="http://www.w3.org/1999/02/22-rdf-syntax-ns#"
   xmlns:svg="http://www.w3.org/2000/svg"
   xmlns="http://www.w3.org/2000/svg"
   xmlns:xlink="http://www.w3.org/1999/xlink"
   xmlns:sodipodi="http://sodipodi.sourceforge.net/DTD/sodipodi-0.dtd"
   xmlns:inkscape="http://www.inkscape.org/namespaces/inkscape"
   width="96"
   height="96"
   id="svg2982"
   version="1.1"
   inkscape:version="0.48.1 r9760"
   sodipodi:docname="emblem-symbolic-link.svg">
  <defs
     id="defs2984">
    <filter
       color-interpolation-filters="sRGB"
       inkscape:collect="always"
       id="filter6279-2">
      <feGaussianBlur
         inkscape:collect="always"
         stdDeviation="0.8"
         id="feGaussianBlur6281-1" />
    </filter>
    <linearGradient
       inkscape:collect="always"
       xlink:href="#ButtonColor-6"
       id="linearGradient9181"
       gradientUnits="userSpaceOnUse"
       gradientTransform="translate(0,-7.8515622e-6)"
       x1="48"
       y1="1052.3622"
       x2="48"
       y2="902.36218" />
    <linearGradient
       x1="10.31979"
       y1="21"
       x2="10.31979"
       y2="0.99929649"
       id="ButtonColor-6"
       gradientUnits="userSpaceOnUse">
      <stop
         id="stop3189-4"
         style="stop-color:#c8c8c8;stop-opacity:1"
         offset="0" />
      <stop
         id="stop3191-0-5"
         style="stop-color:#e6e6e6;stop-opacity:1"
         offset="1" />
    </linearGradient>
    <clipPath
       id="clipPath3703">
      <path
         d="m -100,-74 0,96 96,0 0,-96 -96,0 z M -71.6875,-54.15625 -28.03125,-54 -28,-10.5 -42.09375,-24.59375 c -14.967412,6.310412 -22.381278,18.460048 -24.9375,28 -9.605951,-14.408924 -4.606056,-31.867968 9.4375,-43.46875 L -71.6875,-54.15625 z"
         inkscape:connector-curvature="0"
         id="path3705"
         style="opacity:0.3;color:#000000;fill:#ff0000;stroke:none;stroke-width:4;marker:none;visibility:visible;display:inline;overflow:visible;enable-background:accumulate" />
    </clipPath>
    <filter
       color-interpolation-filters="sRGB"
       id="filter3707">
      <feGaussianBlur
         id="feGaussianBlur3709"
         stdDeviation="0.76172645" />
    </filter>
    <linearGradient
       x1="17.506266"
       y1="-42.696442"
       x2="17.506266"
       y2="-84.79258"
       id="linearGradient2884"
       xlink:href="#linearGradient4012"
       gradientUnits="userSpaceOnUse"
       gradientTransform="matrix(1.3690757,0,0,-1.3690757,28.199165,-112.91297)" />
    <linearGradient
       x1="7.1904788"
       y1="6.9551144"
       x2="7.1904788"
       y2="18.319494"
       id="linearGradient4012"
       gradientUnits="userSpaceOnUse"
       gradientTransform="scale(1.1467263,0.8720476)">
      <stop
         id="stop4014-0"
         style="stop-color:#323232;stop-opacity:1"
         offset="0" />
      <stop
         id="stop4016"
         style="stop-color:#787878;stop-opacity:1"
         offset="1" />
    </linearGradient>
  </defs>
  <sodipodi:namedview
     id="base"
     pagecolor="#ffffff"
     bordercolor="#666666"
     borderopacity="1.0"
     inkscape:pageopacity="0.0"
     inkscape:pageshadow="2"
     inkscape:zoom="3.959798"
     inkscape:cx="36.39115"
     inkscape:cy="42.877139"
     inkscape:document-units="px"
     inkscape:current-layer="layer1"
     showgrid="false"
     inkscape:window-width="1280"
     inkscape:window-height="725"
     inkscape:window-x="0"
     inkscape:window-y="25"
     inkscape:window-maximized="1" />
  <metadata
     id="metadata2987">
    <rdf:RDF>
      <cc:Work
         rdf:about="">
        <dc:format>image/svg+xml</dc:format>
        <dc:type
           rdf:resource="http://purl.org/dc/dcmitype/StillImage" />
        <dc:title></dc:title>
      </cc:Work>
    </rdf:RDF>
  </metadata>
  <g
     inkscape:label="Layer 1"
     inkscape:groupmode="layer"
     id="layer1"
     transform="translate(0,-956.36218)">
    <g
       id="g6877">
      <rect
         transform="translate(0,-7.8515622e-6)"
         y="964.36218"
         x="8"
         height="80"
         width="80"
         id="rect9283"
         style="fill:#000000;fill-opacity:1;stroke:none;filter:url(#filter6279-2)"
         rx="5"
         ry="5" />
      <rect
         ry="5"
         rx="5"
         style="fill:url(#linearGradient9181);fill-opacity:1;stroke:none"
         id="rect9285"
         width="80"
         height="80"
         x="8"
         y="964.36218" />
      <g
         id="g3045"
         style="display:inline"
         transform="matrix(0.81311172,0,0,0.81311172,7.343248,964.81848)">
        <g
           transform="translate(0,74)"
           id="layer1-8"
           style="display:inline">
          <path
             d="m -71.685828,-54.171135 14.09736,14.097373 c -14.043556,11.600782 -19.062817,29.060098 -9.456866,43.469022 2.556222,-9.539952 9.98055,-21.668884 24.947962,-27.979296 L -28,-10.485304 -28.046592,-54 -71.685828,-54.171135 z"
             inkscape:connector-curvature="0"
             transform="translate(100,0)"
             clip-path="url(#clipPath3703)"
             id="path3693"
             style="opacity:0.2;fill:none;stroke:#ffffff;stroke-width:4;stroke-miterlimit:4;stroke-dasharray:none;display:inline;filter:url(#filter3707)" />
          <path
             d="m 28.314172,-54.171135 14.09736,14.097373 C 28.367976,-28.47298 23.348715,-11.013664 32.954666,3.39526 c 2.556222,-9.539952 9.98055,-21.668884 24.947962,-27.979296 L 72,-10.485304 71.953408,-54 28.314172,-54.171135 z"
             inkscape:connector-curvature="0"
             id="path28"
             style="fill:url(#linearGradient2884);fill-opacity:1;display:inline" />
        </g>
      </g>
    </g>
  </g>
</svg>

<?xml version="1.0" encoding="UTF-8" standalone="no"?>
<!-- Created with Inkscape (http://www.inkscape.org/) -->
<svg id="svg2982" xmlns:rdf="http://www.w3.org/1999/02/22-rdf-syntax-ns#" xmlns="http://www.w3.org/2000/svg" height="96" width="96" version="1.1" xmlns:cc="http://creativecommons.org/ns#" xmlns:xlink="http://www.w3.org/1999/xlink" xmlns:dc="http://purl.org/dc/elements/1.1/">
 <defs id="defs2984">
  <filter id="filter6279-2" color-interpolation-filters="sRGB">
   <feGaussianBlur id="feGaussianBlur6281-1" stdDeviation="0.8"/>
  </filter>
  <linearGradient id="linearGradient9181" y2="902.36" gradientUnits="userSpaceOnUse" x2="48" gradientTransform="translate(0 -.0000078516)" y1="1052.4" x1="48">
   <stop id="stop3189-4" style="stop-color:#c8c8c8" offset="0"/>
   <stop id="stop3191-0-5" style="stop-color:#e6e6e6" offset="1"/>
  </linearGradient>
  <clipPath id="clipPath3703">
   <path id="path3705" style="opacity:.3;color:#000000;fill:#f00" d="m-100-74v96h96v-96h-96zm28.312 19.844 43.657 0.156 0.031 43.5-14.094-14.094c-14.967 6.3104-22.381 18.46-24.938 28-9.606-14.409-4.6061-31.868 9.4375-43.469l-14.094-14.093z"/>
  </clipPath>
  <filter id="filter3707" color-interpolation-filters="sRGB">
   <feGaussianBlur id="feGaussianBlur3709" stdDeviation="0.76172645"/>
  </filter>
  <linearGradient id="linearGradient2884" y2="-84.793" gradientUnits="userSpaceOnUse" x2="17.506" gradientTransform="matrix(1.3691 0 0 -1.3691 28.199 -112.91)" y1="-42.696" x1="17.506">
   <stop id="stop4014-0" style="stop-color:#323232" offset="0"/>
   <stop id="stop4016" style="stop-color:#787878" offset="1"/>
  </linearGradient>
 </defs>
 <metadata id="metadata2987">
  <rdf:RDF>
   <cc:Work rdf:about="">
    <dc:format>image/svg+xml</dc:format>
    <dc:type rdf:resource="http://purl.org/dc/dcmitype/StillImage"/>
    <dc:title/>
   </cc:Work>
  </rdf:RDF>
 </metadata>
 <g id="layer1" transform="translate(0 -956.36)">
  <g id="g6877">
   <rect id="rect9283" ry="5" style="filter:url(#filter6279-2)" rx="5" transform="translate(0 -.0000078516)" height="80" width="80" y="964.36" x="8"/>
   <rect id="rect9285" style="fill:url(#linearGradient9181)" rx="5" ry="5" height="80" width="80" y="964.36" x="8"/>
   <g id="g3045" transform="matrix(.81311 0 0 .81311 7.3432 964.82)">
    <g id="layer1-8" transform="translate(0,74)">
     <path id="path3693" style="opacity:.2;filter:url(#filter3707);stroke:#fff;stroke-width:4;fill:none" d="m-71.686-54.171 14.097 14.097c-14.044 11.601-19.063 29.06-9.4569 43.469 2.5562-9.54 9.9806-21.669 24.948-27.979l14.098 14.099-0.047-43.515-43.639-0.171z" clip-path="url(#clipPath3703)" transform="translate(100)"/>
     <path id="path28" style="fill:url(#linearGradient2884)" d="m28.314-54.171 14.097 14.097c-14.043 11.601-19.062 29.06-9.456 43.469 2.5562-9.54 9.9806-21.669 24.948-27.979l14.097 14.099-0.047-43.515-43.639-0.171z"/>
    </g>
   </g>
  </g>
 </g>
</svg>
